X: 40199
T: Tinker Hill
R: reel
M: 4/4
K: Dmajor
dB|AFEF D2 DE|FDAD BDAD|AFEF DEFD|1 EDEF D2 dB|2 EDEF D3 A||
dAAA deed|(3Bcd Ad (3Bcd Ad|dAAA deed|Bdce dgfe|
dAAA deed|(3Bcd Ad (3Bcd Ad|F3 A G3 B|AFDF E2||

